icons/glyphs/glyph-pinyin.svg

<?xml version="1.0" encoding="UTF-8" standalone="no"?><svg height="16.20767" viewBox="0 0 16 16.20767" width="16" xmlns="http://www.w3.org/2000/svg"><metadata><rdf:RDF><cc:Work><dc:format>image/svg+xml</dc:format><dc:type/><dc:title/></cc:Work></rdf:RDF></metadata><sodipodi:namedview/><path d="m8.2345048 0-.4760093.3593417-1.4373634 1.0733551 1.1666909 1.5540321h-1.0453556-1.1946915v-2.3893832h-2.3893832v2.3893832h-2.3893831v2.3893831h2.3893831v2.5457208l-2.8583927 1.430363 1.0640221 2.1373782 1.7943706-.898353v3.145399h-2.3893831v2.389383h4.7787663v-.956688l.9753534 1.038356.4340099-.399009s1.3236354-1.194135 2.1350443-2.599387v-.0024c.478347-.828582.808366-1.896563 1.003355-3.054395h1.4256955v5.973456h2.389383v-5.973456h2.389384v-2.3893732h-2.389384v-2.3869948h2.389384v-2.3893831h-2.240047l1.166691-1.5540321-1.913374-1.4326968-2.240046 2.9867289h-.298673zm-2.9867289 5.376112h1.1946915 1.1946918v2.3870518h-1.12469l-.069997-.140004v-.15867l-.062996.03266-.5320117-1.068689-.5996791.301006zm4.7787661 0h1.194692v2.3870518h-1.194692zm-4.7787661 4.776434h2.1187116c-.1524289.647302-.3069929 1.278283-.6440142 1.862037-.4480858.775-1.2319648 1.538904-1.4746974 1.782705z" fill="#d0d0d0"/></svg>

<?xml version="1.0" encoding="UTF-8" standalone="no"?>
<svg
     xmlns:dc="http://purl.org/dc/elements/1.1/"
     xmlns:cc="http://creativecommons.org/ns#"
     xmlns:rdf="http://www.w3.org/1999/02/22-rdf-syntax-ns#"
     xmlns:svg="http://www.w3.org/2000/svg"
     xmlns="http://www.w3.org/2000/svg"
     xmlns:sodipodi="http://sodipodi.sourceforge.net/DTD/sodipodi-0.dtd"
     xmlns:inkscape="http://www.inkscape.org/namespaces/inkscape"
     viewBox="0 0 16 16.20767"
     version="1.1"
     id="svg6"
     sodipodi:docname="glyph-pinyin.svg"
     inkscape:version="0.92+devel (c0065a33f9, 2017-07-22, custom)"
     width="16"
     height="16.20767">
    <metadata
         id="metadata10">
        <rdf:RDF>
            <cc:Work
                 rdf:about="">
                <dc:format>image/svg+xml</dc:format>
                <dc:type
                     rdf:resource="http://purl.org/dc/dcmitype/StillImage" />
                <dc:title></dc:title>
            </cc:Work>
        </rdf:RDF>
    </metadata>
    <sodipodi:namedview
         pagecolor="#002466"
         bordercolor="#ffffff"
         inkscape:document-rotation="0"
         borderopacity="0.23921569"
         objecttolerance="10"
         gridtolerance="10"
         guidetolerance="10"
         inkscape:pageopacity="1"
         inkscape:pageshadow="2"
         inkscape:window-width="640"
         inkscape:window-height="480"
         id="namedview8"
         showgrid="false"
         inkscape:showpageshadow="false"
         borderlayer="true"
         inkscape:zoom="13.863636"
         inkscape:cx="9.5528875"
         inkscape:cy="9.676879"
         inkscape:current-layer="svg6" />
    <defs
         id="defs3051">
        <style
             type="text/css"
             id="current-color-scheme">
      .ColorScheme-Text {
        color:#f2f2f2;
      }
      </style>
    </defs>
    <path
         style="color:#f2f2f2;font-style:normal;font-variant:normal;font-weight:normal;font-stretch:normal;font-size:medium;line-height:normal;font-family:sans-serif;font-variant-ligatures:normal;font-variant-position:normal;font-variant-caps:normal;font-variant-numeric:normal;font-variant-alternates:normal;font-variant-east-asian:normal;font-feature-settings:normal;font-variation-settings:normal;text-indent:0;text-align:start;text-decoration:none;text-decoration-line:none;text-decoration-style:solid;text-decoration-color:#000000;letter-spacing:normal;word-spacing:normal;text-transform:none;writing-mode:lr-tb;direction:ltr;text-orientation:mixed;dominant-baseline:auto;baseline-shift:baseline;text-anchor:start;white-space:normal;shape-padding:0;clip-rule:nonzero;display:inline;overflow:visible;visibility:visible;opacity:1;isolation:auto;mix-blend-mode:normal;color-interpolation:sRGB;color-interpolation-filters:linearRGB;solid-color:#000000;solid-opacity:1;vector-effect:none;fill:#d0d0d0;fill-opacity:1;fill-rule:nonzero;stroke:none;stroke-width:1;stroke-linecap:butt;stroke-linejoin:miter;stroke-miterlimit:4;stroke-dasharray:none;stroke-dashoffset:0;stroke-opacity:1;color-rendering:auto;image-rendering:auto;shape-rendering:auto;text-rendering:auto;enable-background:accumulate"
         d="M 8.2345048,0 7.7584955,0.3593417 6.3211321,1.4326968 7.487823,2.9867289 H 6.4424674 5.2477759 V 0.5973457 H 2.8583927 V 2.9867289 H 0.4690096 V 5.376112 H 2.8583927 V 7.9218328 L 0,9.3521958 1.0640221,11.489574 2.8583927,10.591221 V 13.73662 H 0.4690096 v 2.389383 h 4.7787663 v -0.956688 l 0.9753534,1.038356 0.4340099,-0.399009 c 0,0 1.3236354,-1.194135 2.1350443,-2.599387 v -0.0024 c 0.478347,-0.828582 0.808366,-1.896563 1.003355,-3.054395 h 1.4256955 v 5.973456 h 2.389383 V 10.15248 h 2.389384 V 7.7631068 H 13.610617 V 5.376112 h 2.389384 V 2.9867289 H 13.759954 L 14.926645,1.4326968 13.013271,0 10.773225,2.9867289 H 10.474552 Z M 5.2477759,5.376112 h 1.1946915 1.1946918 v 2.3870518 h -1.12469 l -0.069997,-0.140004 v -0.15867 l -0.062996,0.03266 -0.5320117,-1.068689 -0.5996791,0.301006 z m 4.7787661,0 h 1.194692 v 2.3870518 h -1.194692 z m -4.7787661,4.776434 h 2.1187116 c -0.1524289,0.647302 -0.3069929,1.278283 -0.6440142,1.862037 -0.4480858,0.775 -1.2319648,1.538904 -1.4746974,1.782705 z"
         id="path842"
         inkscape:connector-curvature="0"
         inkscape:label="#" />
</svg>
